X:1
T:Benedicam Dominum - Victoria
T:#
%%score [ 1 2 3 4 ]
L:1/8
Q:1/4=200
M:none
K:F
V:1 treble nm="Soprano" snm="S"
V:2 treble nm="Alto" snm="A"
V:3 treble-8 nm="Tenor" snm="T"
V:4 bass nm="Bass" snm="B"
V:1
"^Benedicam Dominum""^Tomás Luis de Victoria\n(1548-1611)" z8 d8- | d4 d4 c4 A4 | c12 B4 | %3
w: Be\-|* ne- di- cam|Do- mi-|
 A8 z4 B4- | B4 B4 A4 F4 | (A12 G4 | A4 G8) ^F4 | G8 z4 B4 | d6 c2 B4 A4 | G8 z4 d4 | %10
w: num, be\-|* ne- di- cam|Do\- *|* * mi-|num in|o- mni tem- po-|re, in|
 _e4 d4 (c4 B4- | B4) A4 B4 F4 | G4 A4 B8 | A4 z2 A2 B4 c4 | d8 c4 A4 | G2 D2 (G8 ^F4) | %16
w: o- mni tem\- *|* po- re: sem-|per laus e-|ius, sem- per laus|e- ius in|o- re me\- *|
 G4 B4 c4 d4 | _e8 d4 B4 | A4 F4 (G2 A2 B2 G2 | A8) G4 _e4 | d4 B4 (c6 A2) | B4 G4 ^F4 A4 | %22
w: o, sem- per laus|e- ius in|o- re me\- * * *|* o, in|o- re me\- *|o, in o- re|
 (B4 G4 B4 A4- | A2 G2 G8 ^F4) | G16 | z16 | D12 D4 | F12 F4 | F4 (B8 A2 G2 | A6 G2 A4) =B4 | %30
w: me\- * * *||o.||A- spi-|ce in|me, a\- * *|* * * spi-|
 (c6 d2) _e8 | d16 | z4 d8 d4 | B4 c4 d4 D4 | E4 ^F4 G8 | ^F4 (A8 G4 | A8) A8 | z4 d4 d4 d4 | %38
w: ce * in|me,|a- spi-|ce in me, et|mi- se- re-|re me\- *|* i,|et mi- se-|
 (_e6 d2 c4) B4 | A8 G8 | z4 D8 D4 | D8 E6 E2 | F4 A4 B4 c4 | (d6 c2 B4 A4 | G8) F4 A4 | B4 c4 d8 | %46
w: re\- * * re|me- i:|quo- ni-|am, quo- ni-|am ad te cla-|ma\- * * *|* vi, ad|te cla- ma-|
 ^c8 z4 d4 | d4 d4 c4 B4 | A8 G4 d4 | d4 d4 _e8 | c8 (d6 c2 | B4 G4 c6 B2 | A8 G4 B4 | %53
w: vi in|to- to cor- de|me- o, in|to- to cor-|de me\- *||* o, in|
 A4 =B4[Q:1/4=197] (c6[Q:1/4=194] _B2 | %54
w: to- to cor\- *|
[Q:1/4=192] A4)[Q:1/4=188] G4[Q:1/4=186] ^F2[Q:1/4=185] G[Q:1/4=184]A[Q:1/4=182] B4 | %55
w: * de me\- * * *|
[Q:1/4=179] A4[Q:1/4=175] G8[Q:1/4=171] ^F4) |[Q:1/4=170] G16 |] %57
w: |o.|
V:2
 G12 G4 | F4 D4 (F8- | F4 E4 ^F4 G4- | G4) ^F4 G8 | z4 d8 d4 | c4 A4 c8- | c4 B4 A8 | z4 B4 d6 c2 | %8
w: Be- ne-|di- cam Do\-||* mi- num,|be- ne-|di- cam Do\-|* mi- num|in o- mni|
 (B4 A4 G4 F4 | B6 A2 G4) ^F4 | G4 B4 A4 d4 | c6 c2 d4 D4 | E4 ^F4 G8 | A4 =F4 G4 A4 | B8 A4 c4 | %15
w: tem\- * * *|* * * po-|re, in o- mni|tem- po- re: sem-|per laus e-|ius, sem- per laus|e- ius in|
 =B4 c4 A8 | G4 z2 G2 A4 B4 | c8 B4 d4 | c4 A4 (B2 c2 d2 B2 | c4) F4 z4 G4 | F6 D2 (E4 F4) | %21
w: o- re me-|o, sem- per laus|e- ius in|o- re me\- * * *|* o, in|o- re me\- *|
 D4 B4 A4 ^F4 | (G12 A4 | B4 c4) A8 | z8 (D8- | D8 A8- | A4 G2 ^F2 G4) G4 | A8 (D8- | D8 G8- | %29
w: o, in o- re|me\- *|* * o.|A\-||* * * * spi-|ce, a\-||
 G4 ^F2 E2 F4) F4 | G8 (c8- | c4 B2 A2 B6) G2 | A4 B6 (AG) F4 | G8 F4 A4 | A4 A4 B8 | A8 z4 D4 | %36
w: * * * * spi-|ce, a\-|* * * * spi-|ce, a- spi\- * ce|in me, et|mi- se- re-|re, et|
 E4 E4 ^F8 | G4 B4 A4 B4 | (c6 B2 A4) G4 | (^F2 G4 F2) G4 B4- | B4 B4 B8 | z4 G8 G4 | A8 z8 | %43
w: mi- se- re-|re, et mi- se-|re\- * * re|me\- * * i: quo\-|* ni- am,|quo- ni-|am|
 z4 F4 G4 A4 | (B4 c4 d6 c2 | B4 A8 G4) | A8 z4 A4 | B4 B4 A4 G4 | (^F2 G4 F2) G4 B4 | %49
w: ad te cla-|ma\- * * *||vi in|to- to cor- de|me\- * * o, in|
 A4 =B4 c4 G4 | (A2 B4 A2) B4 (F4 | G2 A2 B4 A4 G4- | G4 ^F4) G4 d4 | d4 d4 (_e6 d2 | %54
w: to- to cor- de|me\- * * o, me\-||* * o, in|to- to cor\- *|
 c4 B4 A4) G4 | (^F2 GA B4 A8) | G16 |] %57
w: * * * de|me\- * * * *|o.|
V:3
 z16 | z16 | z16 | d12 d4 | B4 G4 (A4 B4 | A2 F2 f8 g4 | f2 e2 d2 c2 d4) d4 | G16 | z4 D4 d8- | %9
w: |||Be- ne-|di- cam Do\- *||* * * * * mi-|num|in o\-|
 d4 d4 G4 A4 | c4 F4 A4 B4 | c6 c2 B4 d4 | c4 A4 G8 | d4 z2 d2 d4 f4 | f8 f4 f4 | d4 _e4 d8 | %16
w: * mni tem\- po-|re, in o- mni|tem- po- re: sem-|per laus e-|ius, sem- per laus|e- ius in|o- re me-|
 d4 z2 d2 f4 f4 | g8 g8 | z16 | z4 d4 (B4 G2 A2 | B2 c2) d4 c8 | B8 z4 d4 | (d6 c2 B4) c4 | %23
w: o, sem- per laus|e- ius||in o\- * *|* * re me-|o, in|o\- * * re|
 (_e8 d8) | d8 z4 (G2 A2 | B2 c2 d6 c2 A4 | B12) B4 | A16 | (B8 G8) | d16 | _e12 c4 | d8 z4 (d4- | %32
w: me\- *|o. A\- *||* spi-|ce|in *|me,|a- spi-|ce, a\-|
 d2 c2 B2 A2 B4) A4 | G4 G4 A8 | z4 d4 d4 d4 | d8 ^c4 (d4- | d4 ^c4 d8) | G8 z4 g4 | g4 g4 c4 d4 | %39
w: * * * * * spi-|ce in me,|et mi- se-|re- re me\-||i, et|mi- se- re- re|
 d8 d8 | g12 g4 | g4 G8 c4 | c8 z8 | z4 B4 B4 c4 | G8 A4 d4 | d4 f4 d8 | e4 e4 f4 f4 | f12 d4 | %48
w: me- i:|quo- ni-|am, quo- ni-|am|ad te cla-|ma- vi, ad|te cla- ma-|vi in to- to|cor- de|
 d8 d8 | z4 g4 g4 g4 | f12 d4 | _e16 | d16 | z4 g4 g4 g4 | c4 d4 d8- | d16 | d16 |] %57
w: me- o,|in to- to|cor- de|me-|o,|in to- to|cor- de me\-||o.|
V:4
 z16 | z16 | z16 | z8 G,8- | G,4 G,4 F,4 D,4 | (F,12 E,4 | F,4 G,4 D,8 | z4 G,4 B,6 A,2 | %8
w: |||Be\-|* ne- di- cam|Do\- *|* mi- num|in o- mni|
 G,4 ^F,4 G,4 D,4 | G,6 F,2 _E,4 D,4 | C,4 B,,4 F,4 D,4 | _E,4 F,4 B,,8 | z16 | z4 D,4 G,4 F,4 | %14
w: tem- po- re, in|o- mni tem- po-|re, in o- mni|tem- po- re:||sem- per laus|
 B,,8 F,,4 F,4 | G,4 C,4 D,8 | G,,4 G,4 F,4 D,4 | C,8 G,8 | z8 z4 G,4 | F,4 D,4 _E,8 | %20
w: e- ius in|o- re me-|o, sem- per laus|e- ius|in|o- re me-|
 B,,4 B,4 A,4 F,4 | G,8 D,4 D,4 | G,12 F,4 | _E,4 C,4 D,8) | G,,16 | z16 | (G,,16 | D,12) D,4 | %28
w: o, in o- re|me- o, in|o- re|me\- * *|o.||A\-|* spi-|
 B,,8 _E,8 | D,16 | (C,16 | G,12) G,4 | ^F,4 G,6 =F,2 D,4 | _E,8 D,4 D,4 | %34
w: ce in|me,|a\-|* spi-|ce, a- spi- ce|in me, et|
 ^C,4 D,4 (G,,2 A,,2 B,,2 =C,2 | D,2 E,2 ^F,2 G,2 A,4) B,4 | A,8 D,8 | z4 G,4 ^F,4 G,4 | %38
w: mi- se- re\- * * *|* * * * * re|me- i,|et mi- se-|
 C,12 G,,4 | D,8 G,,4 G,4- | G,4 G,4 G,8- | G,8 C,6 C,2 | F,,4 F,4 G,4 A,4 | (B,6 A,2 G,4 F,4 | %44
w: re- re|me- i: quo\-|* ni- am,|* quo- ni-|am ad te cla-|ma\- * * *|
 _E,8) D,4 D,4 | G,4 A,4 B,8 | A,4 A,,4 D,4 D,4 | (B,,2 C,2 D,2 E,2 F,4) G,4 | D,8 G,,4 G,4 | %49
w: * vi, ad|te cla- ma-|vi in to- to|cor\- * * * * de|me- o, in|
 ^F,4 G,4 C,4 C,4 | F,8 B,,4 B,,4 | _E,4 E,4 C,4 C,4 | D,8 G,,4 G,4 | ^F,4 G,4 C,8- | %54
w: to- to cor- de|me- o, in|to- to cor- de|me- o, in|to- to cor\-|
 C,4 G,,4 D,8- | D,16 | G,,16 |] %57
w: * de me\-||o.|

